packages/assets/files/fram/colors/icons/favicon.svg

<svg width="20" height="20" viewBox="0 0 20 20" fill="none" xmlns="http://www.w3.org/2000/svg">
<g clip-path="url(#clip0_117_6)">
<path d="M20 0H0V20H20V0Z" fill="#005683" stroke="#1D1D1B" stroke-width="0.536133" stroke-miterlimit="10"/>
<path fill-rule="evenodd" clip-rule="evenodd" d="M15.9928 2.28125H4.00841C3.86388 8.00391 3.65099 12.9082 10.0006 17.7129C16.3502 12.9102 16.1373 8.00586 15.9928 2.28125ZM5.03575 9.52148C6.14318 9.20703 6.95568 8.1875 6.95568 6.97852V4.64648H5.40294V4.25781H6.95568V3.14648H7.34435V4.25781H8.89708V4.64648H7.34435V6.97852C7.34435 8.1875 8.15685 9.20703 9.26427 9.52148C9.26427 10.6895 8.31701 11.6367 7.15099 11.6367C5.98107 11.6367 5.03575 10.6914 5.03575 9.52148ZM12.1002 12.0566C12.1002 13.2246 11.1549 14.1699 9.98693 14.1699C8.81896 14.1699 7.87365 13.2246 7.87365 12.0566V12.0547C8.98302 11.7402 9.79357 10.7207 9.79357 9.51172V7.17969H8.24083V6.79102H9.79357V5.68164H10.1822V6.79297H11.735V7.18164H10.1822V9.51367C10.1803 10.7227 10.9908 11.7402 12.1002 12.0566ZM14.9361 9.52148C14.9361 10.6895 13.9889 11.6367 12.8229 11.6367C11.6549 11.6367 10.7096 10.6914 10.7096 9.52148C11.817 9.20703 12.6295 8.1875 12.6295 6.97852V4.64648H11.0748V4.25781H12.6276V3.14648H13.0162V4.25781H14.5709V4.64648H13.0182V6.97852C13.0162 8.1875 13.8287 9.20703 14.9361 9.52148Z" fill="white"/>
</g>
<defs>
<clipPath id="clip0_117_6">
<rect width="20" height="20" fill="white"/>
</clipPath>
</defs>
</svg>

<svg xmlns="http://www.w3.org/2000/svg" width="20" height="20" fill="none"><g clip-path="url(#a)"><path fill="#005683" stroke="#1D1D1B" stroke-miterlimit="10" stroke-width=".536" d="M20 0H0v20h20V0Z"/><path fill="#fff" fill-rule="evenodd" d="M15.993 2.281H4.008c-.144 5.723-.357 10.627 5.993 15.432 6.35-4.803 6.136-9.707 5.992-15.432ZM5.036 9.521a2.645 2.645 0 0 0 1.92-2.542V4.646H5.403v-.388h1.553V3.146h.388v1.112h1.553v.388H7.344V6.98c0 1.208.813 2.228 1.92 2.542a2.115 2.115 0 1 1-4.228 0Zm7.064 2.536a2.112 2.112 0 1 1-4.226 0v-.002a2.643 2.643 0 0 0 1.92-2.543V7.18H8.24V6.79h1.553v-1.11h.388v1.112h1.553v.389h-1.553v2.332a2.64 2.64 0 0 0 1.918 2.543Zm2.836-2.536a2.113 2.113 0 1 1-4.226 0 2.645 2.645 0 0 0 1.92-2.542V4.646h-1.555v-.388h1.553V3.146h.388v1.112h1.555v.388h-1.553V6.98a2.641 2.641 0 0 0 1.918 2.542Z" clip-rule="evenodd"/></g><defs><clipPath id="a"><path fill="#fff" d="M0 0h20v20H0z"/></clipPath></defs></svg>
